!!!!SEGMENT: Ver2010-Gaudeamus_omnes_in_Domino.krn
!!!id: Ver2010
!!!AGN: Motet
!!!SCT: Slim (1972)
!!!voices: 4
!!!COM: Philippe Verdelot
!!!OTL: Gaudeamus omnes in Domino
**kern	**kern	**kern	**kern
*part4	*part3	*part2	*part1
*staff4	*staff3	*staff2	*staff1
*I"Bassus	*I"Tenor	*I"Altus	*I"Superius
*I'B	*I'T	*I'A	*I'S
*clefF4	*clefGv2	*clefG2	*clefG2
*k[]	*k[]	*k[]	*k[]
*C:	*C:	*C:	*C:
*M2/1	*M2/1	*M2/1	*M2/1
*met(C|)	*met(C|)	*met(C|)	*met(C|)
!!section: Prima pars: Gaudeamus omnes in Domino
!!!OMD: Prima pars: Gaudeamus omnes in Domino
=1	=1	=1	=1
0r	1.e	0r	0r
.	2e	.	.
=2	=2	=2	=2
0r	1e	0r	0r
.	1d	.	.
=3	=3	=3	=3
1.A	1f	0r	0r
.	2e	.	.
2A	2c	.	.
=4	=4	=4	=4
1A	2e	0r	0r
.	2f	.	.
1G	2.g	.	.
.	8fL	.	.
.	8eJ	.	.
=5	=5	=5	=5
1B-X	4d	0r	0r
.	4c	.	.
.	2d	.	.
[1A	2.c	.	.
.	4d	.	.
=6	=6	=6	=6
2A]	4e	0r	1.ee
.	4f	.	.
2G	2g	.	.
2.A	2r	.	.
.	2c	.	2ee
4B	.	.	.
=7	=7	=7	=7
2c	2.e	0r	1ee
2A	.	.	.
.	4f	.	.
2.B-X	2g	.	1dd
.	[2f	.	.
4c	.	.	.
=8	=8	=8	=8
1d	4f]	1.a	1ff
.	4e	.	.
.	2d	.	.
1r	2c	.	2ee
.	2A	2a	2cc
=9	=9	=9	=9
2r	2c	1a	2ee
2D	2d	.	2ff
2.E	2G	1g	2.gg
.	[2g	.	.
4F	.	.	8ffL
.	.	.	8eeJ
=10	=10	=10	=10
2G	2g]	1b-X	4dd
.	.	.	4cc
2G	2d	.	2dd
2.A	2f	[1a	[1cc
.	2e	.	.
4B	.	.	.
=11	=11	=11	=11
1c	4A	2a]	1cc]
.	4B	.	.
.	4c	2g	.
.	4d	.	.
[1A	2.e	2.a	2r
.	.	.	[2ee
.	4A	4b	.
=12	=12	=12	=12
2A]	1a	2cc	2ee]
2A	.	1a	2ee
1d	1f	.	1ff
.	.	2a	.
=13	=13	=13	=13
2B	2r	2b	2dd
2.c	1e	1g	2.ee
4B	.	.	4dd
4A	2e	[2a	4cc
4G	.	.	4b
=14	=14	=14	=14
2F	2f	2a]	2a
2G	2d	2g	2dd
4C	1e	2g	2cc
4D	.	.	.
4E	.	[2g	[2b
4F	.	.	.
=15	=15	=15	=15
2G	2d	4g]	4b]
.	.	4f	4a
2A	2c	4e	1a
.	.	4d	.
2E	1B	1e	.
2E	.	.	2g#i
=16	=16	=16	=16
2F	2A	1r	[0a
2D	1d	.	.
1A	.	2r	.
.	2c#i	2e	.
=17	=17	=17	=17
1D	2.d	2f	1a]
.	.	2d	.
.	8cL	.	.
.	8BJ	.	.
1r	1A	1a	2r
.	.	.	2cc
=18	=18	=18	=18
0r	0r	2d	2dd
.	.	2.a	1cc
.	.	4g	.
.	.	4a	2ff
.	.	4b	.
=19	=19	=19	=19
0r	2r	2cc	2ee
.	2B	2.b	2.dd
.	2c	.	.
.	.	4a	2cc
.	2A	[2a	.
.	.	.	8bL
.	.	.	8aJ
=20	=20	=20	=20
2r	1e	2a]	2b
2E	.	2g	2b
2F	1A	1f	[1a
2D	.	.	.
=21	=21	=21	=21
1A	2r	1e	1a]
.	2c	.	.
2D	2d	1r	1r
[2A	2c	.	.
=22	=22	=22	=22
4A]	1f	0r	1r
4G	.	.	.
4A	.	.	.
4B	.	.	.
2c	2e	.	2r
2F	[2d	.	2a
=23	=23	=23	=23
2G	4d]	0r	2b
.	2c	.	.
1A	.	.	2a
.	8BL	.	.
.	8AJ	.	.
.	2B	.	1dd
2G#i	2B	.	.
=24	=24	=24	=24
1A	2A	2r	2.cc
.	1c	2e	.
.	.	.	4b
2F	.	2f	2a
2G	2B	2d	[2b
=25	=25	=25	=25
2A	2c	1f	4b]
.	.	.	4a
2D	2d	.	1a
1E	1B	2.e	.
.	.	.	2g#i
.	.	4d	.
=26	=26	=26	=26
2r	0A	2e	[0a
2D	.	1f	.
2.F	.	.	.
.	.	4e	.
4G	.	4d	.
=27	=27	=27	=27
2A	2r	2c	0a_
2D	2A	2d	.
2.A	2.c	1e	.
4B	4d	.	.
=28	=28	=28	=28
2c	2e	1r	0a]
1d	2f	.	.
.	1e	2r	.
2c#i	.	2e	.
=29	=29	=29	=29
1d	1d	2.f	2r
.	.	.	2a
.	.	4g	.
1r	2r	[1a	2.cc
.	2A	.	.
.	.	.	4dd
=30	=30	=30	=30
2r	2c	0a_	2ee
2D	2d	.	1ff
2.F	2A	.	.
.	2f	.	4ee
4G	.	.	4dd
=31	=31	=31	=31
2A	2e	1a]	2cc
2D	2.d	.	2dd
2.F	.	2r	2.a
.	4c	.	.
.	2f	[2a	.
4G	.	.	4b
=32	=32	=32	=32
2A	2e	2a]	2cc
2B-i	2d	2g	1dd
1A	1e	1a	.
.	.	.	2cc#i
=33	=33	=33	=33
[0D	[0d	[0f	1dd
.	.	.	2r
.	.	.	2a
=34	=34	=34	=34
0D]	0d]	1f]	2a
.	.	.	2a
.	.	2r	[1dd
.	.	2d	.
=35	=35	=35	=35
0r	0r	2d	2dd]
.	.	2d	2dd
.	.	[1g	1dd
=36	=36	=36	=36
0r	0r	2g]	2r
.	.	2g	2dd
.	.	1g	2ee
.	.	.	[2gg
=37	=37	=37	=37
0r	0r	2r	4gg]
.	.	.	4ff
.	.	2g	4ee
.	.	.	4dd
.	.	2a	2cc
.	.	[2cc	[2ee
=38	=38	=38	=38
0r	0r	4cc]	4ee]
.	.	4b	4dd
.	.	4a	4cc
.	.	4g	4b
.	.	2f	4a
.	.	.	4g
.	.	[2a	4f
.	.	.	4e
=39	=39	=39	=39
0r	1r	2a]	2d
.	.	4g	1dd
.	.	4f	.
.	1A	1e	.
.	.	.	2cc#i
=40	=40	=40	=40
1D	2A	0d	0dd
.	2A	.	.
2D	[1d	.	.
2D	.	.	.
=41	=41	=41	=41
1.G	2d]	0r	0r
.	2d	.	.
.	1d	.	.
2G	.	.	.
=42	=42	=42	=42
0G	2r	0r	0r
.	2d	.	.
.	2e	.	.
.	[2g	.	.
=43	=43	=43	=43
2r	4g]	0r	0r
.	4f	.	.
2G	4e	.	.
.	4d	.	.
2A	2c	.	.
[2c	[2e	.	.
=44	=44	=44	=44
4c]	4e]	0r	0r
4B	4d	.	.
4A	4c	.	.
4G	4B	.	.
2F	4A	.	.
.	4G	.	.
[2A	4F	.	.
.	4E	.	.
=45	=45	=45	=45
2A]	2D	1r	0r
4G	1d	.	.
4F	.	.	.
1E	.	2r	.
.	2c#i	[2g	.
=46	=46	=46	=46
1D	1d	2g]	2r
.	.	2f	1dd
1r	1r	2g	.
.	.	2a	2cc
=47	=47	=47	=47
0r	0r	2f	2dd
.	.	2g	2ee
.	.	2a	2cc
.	.	2f	2dd
=48	=48	=48	=48
0r	0r	2g	2ee
.	.	2.a	2.ff
.	.	4g	4ee
.	.	4f	[2ee
.	.	4e	.
=49	=49	=49	=49
0r	0r	1f	2ee]
.	.	.	2dd
.	.	1e	1ee
=50	=50	=50	=50
0A	0e	1a	1r
.	.	[1a	[1cc
=51	=51	=51	=51
0A	1e	2a]	1cc]
.	.	4g	.
.	.	4f	.
.	1c	2e	1cc
.	.	2f	.
=52	=52	=52	=52
1.G	1d	0g	1b
.	1B	.	1dd
2G	.	.	.
=53	=53	=53	=53
1A	1c	1e	1.cc
1F	2.A	2f	.
.	.	2d	4b
.	4B	.	4a
=54	=54	=54	=54
0E	1c	1.e	2g
.	.	.	1a
.	1B	.	.
.	.	8eL	2g#i
.	.	8d	.
.	.	8c	.
.	.	8BJ	.
=55	=55	=55	=55
1A	2A	1c	0a
.	2e	.	.
1r	1f	1d	.
=56	=56	=56	=56
2r	2e	1A	0r
2A	2c	.	.
1B-X	2d	1r	.
.	[2f	.	.
=57	=57	=57	=57
2A	4f]	0r	0r
.	4e	.	.
2F	4f	.	.
.	4d	.	.
2G	2e	.	.
[2A	[2f	.	.
=58	=58	=58	=58
2A]	2f]	0r	1r
4G	4e	.	.
4F	4d	.	.
4E	4c	.	2r
4D	4B	.	.
2E	2c#i	.	2ee
=59	=59	=59	=59
1D	1d	1r	1ff
1r	1A	2r	2ee
.	.	2a	2cc
=60	=60	=60	=60
0r	0r	1b-X	2dd
.	.	.	2.ff
.	.	2a	.
.	.	.	4ee
.	.	2f	4ff
.	.	.	4dd
=61	=61	=61	=61
2r	0r	2g	2ee
2D	.	1a	1ff
2F	.	.	.
2G	.	4g	4ee
.	.	4f	4dd
=62	=62	=62	=62
1A	0r	4e	4cc
.	.	4d	4b
.	.	2e	2cc
[1B-X	.	2d	[1dd
.	.	2d	.
=63	=63	=63	=63
1B-]	0r	2f	1dd]
.	.	2g	.
[1A	.	2a	2r
.	.	[2cc	2a
=64	=64	=64	=64
1A]	2r	4cc]	2.cc
.	.	4b	.
.	2A	2a	.
.	.	.	4dd
1r	2c	2g	2ee
.	2d	2f	[2ff
=65	=65	=65	=65
2r	1e	1g	4ff]
.	.	.	4ee
2c	.	.	1ee
2A	1f	1r	.
2B	.	.	2dd
=66	=66	=66	=66
1c	1e	1g	1ee
1d	1r	2f	2r
.	.	2d	2a
=67	=67	=67	=67
2A	1f	1a	2cc
2d	.	.	2dd
2c	2e	1a	2ee
[2d	2d	.	[2ff
=68	=68	=68	=68
2d]	1e	1a	4ff]
.	.	.	4ee
2c#i	.	.	1ee
1d	1f	2r	.
.	.	2a	2dd
=69	=69	=69	=69
1A	0e	1cc	1ee
1r	.	1b	2r
.	.	.	2ee
=70	=70	=70	=70
0r	0r	2a	1ff
.	.	2f	.
.	.	2g	1ee
.	.	2a	.
=71	=71	=71	=71
0r	0r	4d	1dd
.	.	4e	.
.	.	4f	.
.	.	4g	.
.	.	4a	2r
.	.	4b	.
.	.	4cc	2cc
.	.	4a	.
=72	=72	=72	=72
0r	0r	2b	2dd
.	.	2.cc	2ee
.	.	.	4a
.	.	4b	4b
.	.	[2a	4cc
.	.	.	4a
=73	=73	=73	=73
0r	1e	2a]	2b
.	.	2g#i	2b
.	1f	1a	[1a
=74	=74	=74	=74
1A	1e	2r	1a]
.	.	2a	.
1B	1d	2f	1r
.	.	2g	.
=75	=75	=75	=75
1A	2r	4a	0r
.	.	4b	.
.	2c	4cc	.
.	.	4a	.
1G	2d	2b	.
.	2e	2b	.
=76	=76	=76	=76
2r	4A	1a	0r
.	4B	.	.
2F	4c	.	.
.	4d	.	.
2G	4e	1r	.
.	4d	.	.
2A	[2f	.	.
=77	=77	=77	=77
4D	4f]	0r	0r
4E	4e	.	.
4F	1d	.	.
4D	.	.	.
2E	.	.	.
2E	2c#i	.	.
=78	=78	=78	=78
1D	1d	1r	2r
.	.	.	1dd
1F	2r	1a	.
.	2A	.	2cc
=79	=79	=79	=79
1G	2B	2.g	1b
.	1d	.	.
.	.	4f	.
1A	.	1e	[1a
.	2c#i	.	.
=80	=80	=80	=80
1D	2d	1d	1a]
.	2d	.	.
1A	1e	2r	1cc
.	.	2A	.
=81	=81	=81	=81
2.G	0g	2B	1dd
.	.	1d	.
4F	.	.	.
1E	.	.	1ee
.	.	2c#i	.
=82	=82	=82	=82
1D	1f#X	2.d	1a
.	.	8cL	.
.	.	8BJ	.
1F	1a	2A	2r
.	.	[2d	2a
=83	=83	=83	=83
1G	2.g	2d]	2b
.	.	2B	1dd
.	4f	.	.
1A	1e	1c	.
.	.	.	2cc
=84	=84	=84	=84
1D	1d	2A	2dd
.	.	2f	2a
1r	1r	1g	1b
=85	=85	=85	=85
2r	2r	1f#X	1a
2D	2A	.	.
1G	1B	2r	1r
.	.	[2d	.
=86	=86	=86	=86
0D	2A	2d]	2r
.	2A	2d	1a
.	1d	1f	.
.	.	.	2a
=87	=87	=87	=87
0r	1A	2.e	1cc
.	.	4f	.
.	2r	2g	2b
.	2A	2e	[2a
=88	=88	=88	=88
1r	1d	1f	4a]
.	.	.	4g
.	.	.	4a
.	.	.	4b
2r	1A	2e	2cc
[2D	.	[2f	[2dd
=89	=89	=89	=89
2D]	2r	2f]	2dd]
2D	1A	4e	4cc
.	.	4d	4b
1F	.	2c	1a
.	2A	2d	.
=90	=90	=90	=90
2.E	1c	1e	0g
4F	.	.	.
4G	2.B	1r	.
4A	.	.	.
[2G	.	.	.
.	4c	.	.
=91	=91	=91	=91
2G]	2d	0r	0r
4F	1e	.	.
4E	.	.	.
1F	.	.	.
.	2d	.	.
=92	=92	=92	=92
0E	0e	2r	2r
.	.	1g	1b
.	.	2e	2cc
=93	=93	=93	=93
0r	0r	2f	2dd
.	.	2g	2b
.	.	2a	2.cc
.	.	2a	.
.	.	.	4dd
=94	=94	=94	=94
2r	2r	2.g	2ee
1G	1B	.	1dd
.	.	4f	.
.	.	2d	.
2E	2c	2g	4cc
.	.	.	4b
=95	=95	=95	=95
2F	2d	2f	2a
2G	2B	2d	1dd
2A	2.c	2f	.
2A	.	2e	2cc
.	4d	.	.
=96	=96	=96	=96
2.G	2e	1g	1b
.	1d	.	.
4F	.	.	.
2.D	.	2f	1r
.	4c	[2f	.
4E	4B	.	.
=97	=97	=97	=97
4F	2A	2f]	0r
4G	.	.	.
2.A	2.c	2e	.
.	.	2f	.
4G	4B	.	.
2E	[2e	2g	.
=98	=98	=98	=98
2F	2e]	2a	2r
2F	4A	2a	1cc
.	4B	.	.
1E	4c	2g	.
.	4d	.	.
.	[2e	[2g	2b
=99	=99	=99	=99
0r	2e]	2g]	2cc
.	2d	2f	2dd
.	2.c	4e	2ee
.	.	4d	.
.	.	4e	2ee
.	4B	4f	.
=100	=100	=100	=100
2r	2G	2.g	1.dd
1G	1B	.	.
.	.	4f	.
.	.	2d	.
2E	2c	2g	4cc
.	.	.	4b
=101	=101	=101	=101
2F	2d	2f	2a
2G	2B	2d	1dd
2A	2.c	2f	.
2A	.	2e	2cc
.	4d	.	.
=102	=102	=102	=102
2.G	2e	1g	1b
.	1d	.	.
4F	.	.	.
2D	.	2.f	2r
[2F	4c	.	2a
.	4B	4g	.
=103	=103	=103	=103
2F]	2A	2a	1dd
2G	2B	2g	.
2A	2c	4e	2cc
.	.	4f	.
2G	[2d	2g	[2b
=104	=104	=104	=104
1F	4d]	2a	4b]
.	4c	.	4a
.	4B	2d	1a
.	4A	.	.
1E	1B	1e	.
.	.	.	2g#i
=105	=105	=105	=105
1A	2r	0c	[0a
.	2.A	.	.
2r	.	.	.
.	4B	.	.
[2A	4c	.	.
.	4d	.	.
=106	=106	=106	=106
4A]	2e	2r	0a]
4G	.	.	.
4F	2.f	2c	.
4E	.	.	.
2D	.	1d	.
.	4e	.	.
2F	[2d	.	.
=107	=107	=107	=107
1E	2d]	1e	1r
.	2c#i	.	.
1D	1d	2.f	2r
.	.	.	[2a
.	.	8eL	.
.	.	8fJ	.
=108	=108	=108	=108
0r	2.A	2e	4a]
.	.	.	4b
.	.	2.a	4cc
.	4B	.	4dd
.	2c	.	2ee
.	.	4g	.
.	[2d	4f	[2ff
.	.	4e	.
=109	=109	=109	=109
0r	4d]	2d	4ff]
.	4c	.	4ee
.	4B-X	2f	1dd
.	4A	.	.
.	2G	1e	.
.	2A	.	2cc#i
=110	=110	=110	=110
2.D	2r	2d	1dd
.	2.A	1f	.
4E	.	.	.
4F	.	.	2.a
4G	4B	.	.
[2A	4c	2e	.
.	4d	.	4b
=111	=111	=111	=111
2A]	2e	1.a	2cc
2D	2.f	.	2dd
2F	.	.	2cc
.	4e	.	.
2G	[2d	2g	[2b
=112	=112	=112	=112
1A	2d]	2f	4b]
.	.	.	4a
.	2c	2e	1a
1B-i	1d	1d	.
.	.	.	2g
=113	=113	=113	=113
0A	1e	2c	[0al
.	.	2A	.
.	2r	4c	.
.	.	4B	.
.	[2A	4c	.
.	.	4d	.
=114	=114	=114	=114
2r	4A]	1e	0a_
.	4B	.	.
2.A	4c	.	.
.	4d	.	.
.	2e	1c	.
4G	.	.	.
4F	[2f	.	.
4E	.	.	.
=115	=115	=115	=115
2D	2f]	2d	0a_
2C	2e	2e	.
1D	1d	1f	.
=116	=116	=116	=116
00Al	00c#Xl	00el	00a]
==	==	==	==
*-	*-	*-	*-
!!!system-decoration: [*]
!!!RDF**kern: i = editorial accidental
!!!RDF**kern: l = terminal long
!!!ENC: Benjamin Ory
!!!END: 2021/6/03
!!!EED: Benjamin Ory
!!!EEV: 2021/06/03
!!!YEC: Copyright 2021 Benjamin Ory, All Rights Reserved
!!!ONB: Translated from MusicXML on 2021/06/03
